X: 13
T: No_119_Song_of_the_Crows.krn
N: Derived from No_119_Song_of_the_Crows.krn
%%abc-version 2.0
%%abcx-abcm2ps-target-version 5.9.1 (29 Sep 2008)
%%abc-creator hum2abc beta
%%abcx-conversion-date 2019/03/15 08:29:13
%%humdrum-veritas 3293881097
%%humdrum-veritas-data 895459508
%%linebreak <none>
%%barnumbers 0
L: 1/8
M: 2/4
%%staves {1 2}
V: 1 clef=bass
V: 2 clef=bass
K: Bb
[V:1] [K:clef=bass][M:2/4]B,B, B,B, | 
[V:2] [K:clef=bass][M:2/4]z4 | 
[V:1] B,2B,2 ||  
[V:2] (3G,, z G,, (3G,, z G,, ||  
[V:1] [M:3/4]CCB,2-B,3/G,/ | 
[V:2] [M:3/4]z6 | 
[V:1] G,F, F,F,-F,2 ||  
[V:2] z6 ||  
[V:1] [M:2/4]G,F, G,F, | 
[V:2] [M:2/4]z4 | 
[V:1] F,2F,2 | 
[V:2] z4 | 
[V:1] F,F, D,C, | 
[V:2] z4 | 
[V:1] B,,4 |]  
[V:2] z4 |]  



